X:1
T:James Gibb editions
T:Benchè'l misero cor - Verdelot
T:#
%%score [ 1 2 3 4 ]
L:1/8
Q:1/4=120
M:2/2
K:F
V:1 treble-8 nm="Tenor I" snm="T I"
V:2 treble-8 nm="Tenor II" snm="T II"
V:3 bass nm="Bass I" snm="B I"
V:4 bass nm="Bass II" snm="B II"
V:1
"^Benchè'l misero cor""^Philippe Verdelot\n(1485-1552)" z4 G4 | G2 G2 B3 c | d4 z2 d2 | c2 A2 c4- | %4
w: Ben|chè'l mi- se- ro|cor las-|so ta- lho\-|
 c4 B4 |[M:2/2][K:treble-8] z2 d2 d4 | ^c4 d3 =c | B4 A4 | z2 B2 A2 G2 | F2 D2 F2 G2 | _E2 D2 d4 | %11
w: * ra,|Por- ga|bre- ve ri-|po- so|nu- tri- to|di spe- ran- za|Long' af- fan-|
 d4 z2 d2 | c2 B2 A3 G | F4 A4 | F2 G2 E4 | D2 d2 c2 B2 | _e2 (d3 c/B/) c2 | d4 z2 G2 | %18
w: ni co-|tal ri- fur- g'in|me po-|scia lar- do-|re, che con miei|mag- gior * * dan-|ni, ri-|
 A2 B2 c2 d2 | _e4 d4 | c2 B2 A4 | G4 z4 | G8 | B4 A2 (G2- | G2 ^F2) G4 | z2 G2 G2 B2 | A2 G2 d4 | %27
w: tor- na'l gra- ve|mio sta-|to pe- no-|so,|sta-|to pe- no\-|* * so.|Per- chè si|for- te fu'l|
 c4 c2 d2- | d2 c2 d4- | d4 z2 B2 | B2 B2 c2 B2 | c4 d4 | z2 G2 A2 F2 | G2 A2 B3 A | G2 A2 G4 | %35
w: lac- cio~~a- mo\-|* ro- so|* Nel|qual nei miei pri-|m'an- ni|Mi le- g'a-|mor ma- don- n'e|la mia sor-|
 F4 z4 | d4 ^c2 d2 | B2 B2 A2 F2 | G3 F E2 D2 | z2 d2 ^c2 d2 | B2 B2 A2 F2 | G3 F E4 | %42
w: te,|Che scio- glier|non mi può se|non la mor- te,|che scio- glier|non mi può se|non la mor-|
 (D2 d2 _e2 d2- |[Q:1/4=119] d2)[Q:1/4=117] ^c2[Q:1/4=114] d4- |[Q:1/4=108] d8 |[Q:1/4=105] d8 |] %46
w: te, * * *|* mor- te.|||
V:2
 G4 G2 G2 | B3 c d4 | z2 B2 A2 D2 | (F4 E4- | E4) D2 B2 |[M:2/2][K:treble-8] A2 F2 G3 F | %6
w: Ben chè'l mi-|se- ro cor|las- so ta-|lho\- *|* ra, Por-|ga bre- ve ri-|
 (E4 DEFD | ED d4 ^c2) | d2 d2 d2 d2 | d2 d2 d2 d2 | c2 B4 (AG) | F4 z2 F2 | E2 D2 C2 C2 | %13
w: po\- * * * *||so nu- tri- to|di spe- ran- za|Long' af- fan\- *|ni co-|tal ri- fur- g'in|
 D2 d4 c2 | B2 (d4 ^c2) | d2 B2 A2 d2 | c2 (B3 A G2- | G2) ^F2 (G4 | ^F4) z4 | z8 | z8 | %21
w: me po- scia|lar- do\- *|re, che con miei|mag- gior * *|* dan- ni,||||
 z2 G2 A2 B2 | c2 d2 _e4 | d4 c2 B2 | A4 G4 | B4 c2 d2 | c2 c2 A2 (B2- | BAGF) _E2 D2 | G4 A4- | %29
w: ri- tor- na'l|gra- ve mio|sta- to pe-|no- so,|Per- chè si|for- te fu'l lac\-|* * * * cio~~a- mo-|ro- so|
 A4 z2 G2 | G2 G2 G2 F2 | (G2 A2) B4- | B4 z4 | z8 | z8 | z2 F2 G2 E2 | F2 G2 A3 G | F2 G2 E2 D2 | %38
w: * Nel|qual nei miei pri-|m'an\- * ni||||mi le- g'a-|mor ma- don- n'e|la mia sor- te,|
 z2 d2 ^c2 d2 | B2 B2 A2 F2 | G3 F E2 D2 | z2 d4 ^c2 | d4 B2 B2 | A3 G F2 G2 | B4 A4- | A8 |] %46
w: Che scio- glier|non mi può se|non la mor- te,|che scio-|glier non mi|può se non la|mor- te.||
V:3
 z8 | z4 D,4 | D,2 D,2 F,3 G, | A,4 z2 A,2 | G,2 E,2 G,4 |[M:2/2] D,4 B,4 | A,4 F,4 | G,3 F, E,4 | %8
w: |Ben|chè'l mi- se- ro|cor las-|so ta- lho-|ra, Por-|ga bre-|ve ri- po-|
 D,2 G,2 F,2 B,2 | B,2 B,2 A,2 B,2 | G,2 F,2 G,4 | A,4 z2 B,2 | G,3 F, E,2 E,2 | D,2 F,4 E,2 | %14
w: so nu- tri- to|di spe- ran- za|Long' af- fan-|ni co-|tal ri- fur- g'in|me po- scia|
 D,4 A,4 | F,2 G,2 E,2 G,2 | G,2 F,2 (G,4 | A,4) B,4 | z2 D,2 E,2 F,2 | G,2 A,2 B,3 B, | %20
w: lar- do-|re, Che con miei|mag- gior dan\-|* ni,|ri- tor- na'l|gra- ve mio sta-|
 A,2 G,4 ^F,2 | G,2 C,2 F,2 F,2 | _E,2 D,2 C,2 (G,2- | G,F, D,2) F,2 G,2 | D,4 D,4 | %25
w: to pe- no-|so, ri- tor- na'l|gra- ve mio sta\-|* * * to pe-|no- so.|
 z2 D,2 _E,2 D,2 | _E,4 F,4 | G,3 G, G,2 (B,2- | B,A,) (G,4 F,E,) | F,4 z2 D,2 | D,2 D,2 C,2 D,2 | %31
w: Per- chè si|for- te|fu'l lac- cio~~a- mo\-|* * ro\- * *|so Nel|qual nei miei pri-|
 (_E,3- D,/C,/ G,4) | D,2 E,2 C,2 D,2 | _E,2 F,3 E, D,2 | =E,2 F,4 E,2 | F,4 z4 | z8 | D4 ^C2 D2 | %38
w: m'an\- * * *|ni Mi le- g'a-|mor ma- don- n'e|la mia sor-|te,||Che scio- glier|
 B,2 B,2 A,2 F,2 | G,3 F, E,2 D,2 | z2 D2 ^C2 D2 | B,2 B,2 A,4 | F,4 G,3 F, | (E,4 D,4 | %44
w: non mi può se|non la mor- te,|che scio- glier|non mi può|se non la|mor\- *|
 G,6 ^F,E,) | ^F,8 |] %46
w: |te.|
V:4
 z8 | G,,4 G,,2 G,,2 | B,,3 C, D,4 | z2 D,2 C,2 A,,2 | C,4 G,,4 |[M:2/2] z4 G,,4 | A,,4 B,,4 | %7
w: |Ben chè'l mi-|se- ro cor|las- so ta-|lho- ra,|Por-|ga bre-|
 G,,2 G,,2 A,,4 | B,,2 G,,2 D,2 G,,2 | B,,3 C, D,2 B,,2 | C,2 D,2 G,,4 | D,4 z2 B,,2 | %12
w: ve ri- po-|so nu- tri- to|di spe- ran- za|Long' af- fan-|ni co-|
 C,2 G,,2 A,,2 A,,2 | B,,4 A,,4 | B,,2 G,,2 A,,4 | B,,2 G,,2 A,,2 B,,2 | C,2 D,2 (_E,4 | %17
w: tal ri- fur- g'in|me po-|scia lar- do-|re, Che con miei|mag- gior dan\-|
 D,4) (G,,4- | D,4) z4 | z4 z2 G,,2 | A,,2 B,,2 C,2 D,2 | _E,4 D,4 | C,2 B,,2 C,4 | G,,4 z4 | %24
w: * ni,||ri-|tor- na'l gra- ve|mio sta-|to pe- no-|so.|
 z4 G,,4- | G,,4 C,2 B,,2 | C,4 D,4 | _E,3 D, C,2 B,,2 | _E,4 D,4- | D,4 z2 G,,2 | %30
w: Per\-|* chè si|for- te|fu'l lac- cio~~a- mo-|ro- so|* Nel|
 G,,2 G,,2 _E,2 D,2 | C,4 G,,4- | G,,4 z4 | z4 B,,4 | C,2 A,,2 B,,2 C,2 | D,3 C, B,,2 C,2 | %36
w: qual nei miei pri-|m'an- ni||Mi|le- g'a- mor ma-|don- n'e la mia|
 B,,4 A,,2 D,2- | D,2 G,,2 A,,2 B,,2 | G,,2 G,,2 A,,2 B,,2 | G,,4 A,,2 B,,2 | z2 G,,2 A,,2 B,,2 | %41
w: sor- te, Che|* scio- glier non|mi può se non|la mor- te,|che scio- glier|
 G,,2 G,,2 A,,4 | B,,4 G,,2 G,,2 | (A,,4 B,,4 | G,,4) D,4- | D,8 |] %46
w: non mi può|se non la|mor\- *|* te.||

